icons/fill-new-container-box.svg

<svg xmlns="http://www.w3.org/2000/svg" width="32px" height="32px" viewBox="0 0 32 32" version="1.1">
    <title>fill-new-container-box</title>
    <g id="fill-new-container-box" stroke-width="1" fill-rule="evenodd">
        <path d="M2,12 L13,12 L13,20 C13,20.5522847 13.4477153,21 14,21 L18,21 L18.1166211,20.9932723 C18.6139598,20.9355072 19,20.5128358 19,20 L19,12 L30,12 L30,29 C30,29.5128358 29.6139598,29.9355072 29.1166211,29.9932723 L29,30 L3,30 C2.44771525,30 2,29.5522847 2,29 L2,12 Z M23.0240295,2 C23.3251581,2 23.610254,2.13569727 23.8001435,2.36940737 L29.776114,9.724448 C29.8437762,9.8077245 29.8970828,9.90069639 29.9346791,9.99954786 L18.714,10 L17.2072225,4.72527887 C17.0845649,4.29597731 16.6921789,4 16.2456986,4 L15.7543014,4 L15.6340372,4.00721608 C15.2387073,4.05491591 14.9042844,4.33500473 14.7927775,4.72527887 L13.285,10 L2.06532091,9.99954786 C2.10291722,9.90069639 2.15622384,9.8077245 2.223886,9.724448 L8.19985651,2.36940737 C8.38974597,2.13569727 8.67484193,2 8.97597051,2 L23.0240295,2 Z" id="&#24418;&#29366;" />
    </g>
</svg>

<svg xmlns="http://www.w3.org/2000/svg" viewBox="0 0 32 32"><path fill="currentColor" d="M2 12h11v8a1 1 0 0 0 1 1h4l.117-.007A1 1 0 0 0 19 20v-8h11v17a1 1 0 0 1-.883.993L29 30H3a1 1 0 0 1-1-1zM23.024 2a1 1 0 0 1 .776.37l5.976 7.354a1 1 0 0 1 .159.276H18.714l-1.507-5.275A1 1 0 0 0 16.246 4h-.492l-.12.007a1 1 0 0 0-.841.718L13.285 10H2.065a1 1 0 0 1 .159-.276L8.2 2.37A1 1 0 0 1 8.976 2z"/></svg>
